X: 37988
T: Spatter The Dew
R: slip jig
M: 9/8
K: Edorian
EFE E2 F G2 B|EFE E2 B AFD|EFE E2 F G2 B|AFA dAG FED:|
E2 B B2 FG2F|E2B B2 G AFD|E2 B B2FG2B|AFA dAG FED|
E2BB2F G2F|E2B B2G AFD|E2B ABc dcB|AFA DAG FED||
B2e e/f/ed e2d|B2e e2a fdB|A2 D d2 c d2B|A2 e d2B AFD|B2e e/f/ed e2d|
B2 e e2a fdB|fga efg d2A|B2c A2G FED||BdB ABA G2F|
EFE E2B AFD|BdB ABA G2B|AFA dAG FED|BdB ABA G2F|
EFE E2B AFD|Bcd ABc dcB|AFA dAG FED||

